; Generated by MicroWeldr - Streaming Subscriber
; Prusa Core One Plastic Welding G-code
; Output file: combined.gcode
;
; Process Overview:
; 1. Heat bed and calibrate
; 2. Heat nozzle and wait
; 3. Pause for plastic sheet insertion
; 4. Execute welding sequence
; 5. Cool down and finish
;
; Bed Temperature: 45°C
; Nozzle Temperature: 160°C
;

; Start heating bed to 45°C (heating during calibration)
M140 S45 ; Set bed temperature (start heating)

; Printer initialization
G90 ; Absolute positioning
M83 ; Relative extrusion
G28 ; Home all axes

; Heat bed and nozzle before bed leveling
M190 S45 ; Wait for bed temperature
M104 S160 ; Set nozzle temperature
M109 S160 ; Wait for nozzle temperature

; Bed leveling disabled

; Pause for user to insert plastic sheets
M117 Insert plastic sheets...
M0 ; Pause - Insert plastic sheets and press continue
M117 Starting welding sequence...

; Starting path: dxf_entity_0_0_5pts (normal)
G1 Z5.0 F3000 ; Move to high travel height
G1 X126.000 Y118.854 F3000 ; Move to start of welding
G1 Z0.1 F3000 ; Lower to weld height
G4 P500 ; Weld for 0.5s
G1 Z1.5 F3000 ; Raise to low travel height
G1 X126.147 Y117.926 F3000 ; Move to start of path
G1 Z0.1 F3000 ; Lower to weld height
G4 P500 ; Weld for 0.5s
G1 Z1.5 F3000 ; Raise to low travel height
G1 X126.574 Y117.089 F3000 ; Move to next point
G1 Z0.1 F3000 ; Lower to weld height
G4 P500 ; Weld for 0.5s
G1 Z1.5 F3000 ; Raise to low travel height
G1 X127.239 Y116.426 F3000 ; Move to next point
G1 Z0.1 F3000 ; Lower to weld height
G4 P500 ; Weld for 0.5s
G1 Z1.5 F3000 ; Raise to low travel height
G1 X128.077 Y116.000 F3000 ; Move to next point
G1 Z0.1 F3000 ; Lower to weld height
G4 P500 ; Weld for 0.5s
G1 Z1.5 F3000 ; Raise to low travel height
; Completed path: dxf_entity_0_0_5pts

; Starting path: dxf_entity_1_0_16pts (normal)
G1 X126.000 Y119.664 F3000 ; Move to start of path
G1 Z0.1 F3000 ; Lower to weld height
G4 P500 ; Weld for 0.5s
G1 Z1.5 F3000 ; Raise to low travel height
G1 X126.000 Y120.474 F3000 ; Move to next point
G1 Z0.1 F3000 ; Lower to weld height
G4 P500 ; Weld for 0.5s
G1 Z1.5 F3000 ; Raise to low travel height
G1 X126.000 Y121.284 F3000 ; Move to next point
G1 Z0.1 F3000 ; Lower to weld height
G4 P500 ; Weld for 0.5s
G1 Z1.5 F3000 ; Raise to low travel height
G1 X126.000 Y122.093 F3000 ; Move to next point
G1 Z0.1 F3000 ; Lower to weld height
G4 P500 ; Weld for 0.5s
G1 Z1.5 F3000 ; Raise to low travel height
G1 X126.000 Y122.903 F3000 ; Move to next point
G1 Z0.1 F3000 ; Lower to weld height
G4 P500 ; Weld for 0.5s
G1 Z1.5 F3000 ; Raise to low travel height
G1 X126.000 Y123.713 F3000 ; Move to next point
G1 Z0.1 F3000 ; Lower to weld height
G4 P500 ; Weld for 0.5s
G1 Z1.5 F3000 ; Raise to low travel height
G1 X126.000 Y124.522 F3000 ; Move to next point
G1 Z0.1 F3000 ; Lower to weld height
G4 P500 ; Weld for 0.5s
G1 Z1.5 F3000 ; Raise to low travel height
G1 X126.000 Y125.332 F3000 ; Move to next point
G1 Z0.1 F3000 ; Lower to weld height
G4 P500 ; Weld for 0.5s
G1 Z1.5 F3000 ; Raise to low travel height
G1 X126.000 Y126.142 F3000 ; Move to next point
G1 Z0.1 F3000 ; Lower to weld height
G4 P500 ; Weld for 0.5s
G1 Z1.5 F3000 ; Raise to low travel height
G1 X126.000 Y126.951 F3000 ; Move to next point
G1 Z0.1 F3000 ; Lower to weld height
G4 P500 ; Weld for 0.5s
G1 Z1.5 F3000 ; Raise to low travel height
G1 X126.000 Y127.761 F3000 ; Move to next point
G1 Z0.1 F3000 ; Lower to weld height
G4 P500 ; Weld for 0.5s
G1 Z1.5 F3000 ; Raise to low travel height
G1 X126.000 Y128.571 F3000 ; Move to next point
G1 Z0.1 F3000 ; Lower to weld height
G4 P500 ; Weld for 0.5s
G1 Z1.5 F3000 ; Raise to low travel height
G1 X126.000 Y129.381 F3000 ; Move to next point
G1 Z0.1 F3000 ; Lower to weld height
G4 P500 ; Weld for 0.5s
G1 Z1.5 F3000 ; Raise to low travel height
G1 X126.000 Y130.190 F3000 ; Move to next point
G1 Z0.1 F3000 ; Lower to weld height
G4 P500 ; Weld for 0.5s
G1 Z1.5 F3000 ; Raise to low travel height
G1 X126.000 Y131.000 F3000 ; Move to next point
G1 Z0.1 F3000 ; Lower to weld height
G4 P500 ; Weld for 0.5s
G1 Z1.5 F3000 ; Raise to low travel height
; Completed path: dxf_entity_1_0_16pts

; Starting path: dxf_entity_2_0_16pts (normal)
G1 X130.655 Y141.862 F3000 ; Move to start of path
G1 Z0.1 F3000 ; Lower to weld height
G4 P500 ; Weld for 0.5s
G1 Z1.5 F3000 ; Raise to low travel height
G1 X130.084 Y141.288 F3000 ; Move to next point
G1 Z0.1 F3000 ; Lower to weld height
G4 P500 ; Weld for 0.5s
G1 Z1.5 F3000 ; Raise to low travel height
G1 X129.545 Y140.684 F3000 ; Move to next point
G1 Z0.1 F3000 ; Lower to weld height
G4 P500 ; Weld for 0.5s
G1 Z1.5 F3000 ; Raise to low travel height
G1 X129.039 Y140.052 F3000 ; Move to next point
G1 Z0.1 F3000 ; Lower to weld height
G4 P500 ; Weld for 0.5s
G1 Z1.5 F3000 ; Raise to low travel height
G1 X128.568 Y139.393 F3000 ; Move to next point
G1 Z0.1 F3000 ; Lower to weld height
G4 P500 ; Weld for 0.5s
G1 Z1.5 F3000 ; Raise to low travel height
G1 X128.133 Y138.710 F3000 ; Move to next point
G1 Z0.1 F3000 ; Lower to weld height
G4 P500 ; Weld for 0.5s
G1 Z1.5 F3000 ; Raise to low travel height
G1 X127.736 Y138.005 F3000 ; Move to next point
G1 Z0.1 F3000 ; Lower to weld height
G4 P500 ; Weld for 0.5s
G1 Z1.5 F3000 ; Raise to low travel height
G1 X127.377 Y137.279 F3000 ; Move to next point
G1 Z0.1 F3000 ; Lower to weld height
G4 P500 ; Weld for 0.5s
G1 Z1.5 F3000 ; Raise to low travel height
G1 X127.058 Y136.535 F3000 ; Move to next point
G1 Z0.1 F3000 ; Lower to weld height
G4 P500 ; Weld for 0.5s
G1 Z1.5 F3000 ; Raise to low travel height
G1 X126.780 Y135.774 F3000 ; Move to next point
G1 Z0.1 F3000 ; Lower to weld height
G4 P500 ; Weld for 0.5s
G1 Z1.5 F3000 ; Raise to low travel height
G1 X126.543 Y135.000 F3000 ; Move to next point
G1 Z0.1 F3000 ; Lower to weld height
G4 P500 ; Weld for 0.5s
G1 Z1.5 F3000 ; Raise to low travel height
G1 X126.348 Y134.214 F3000 ; Move to next point
G1 Z0.1 F3000 ; Lower to weld height
G4 P500 ; Weld for 0.5s
G1 Z1.5 F3000 ; Raise to low travel height
G1 X126.196 Y133.419 F3000 ; Move to next point
G1 Z0.1 F3000 ; Lower to weld height
G4 P500 ; Weld for 0.5s
G1 Z1.5 F3000 ; Raise to low travel height
G1 X126.087 Y132.616 F3000 ; Move to next point
G1 Z0.1 F3000 ; Lower to weld height
G4 P500 ; Weld for 0.5s
G1 Z1.5 F3000 ; Raise to low travel height
G1 X126.022 Y131.809 F3000 ; Move to next point
G1 Z0.1 F3000 ; Lower to weld height
G4 P500 ; Weld for 0.5s
G1 Z1.5 F3000 ; Raise to low travel height
; Completed path: dxf_entity_2_0_16pts

; Starting path: dxf_entity_3_0_8pts (normal)
G1 X131.276 Y142.453 F3000 ; Move to start of path
G1 Z0.1 F3000 ; Lower to weld height
G4 P500 ; Weld for 0.5s
G1 Z1.5 F3000 ; Raise to low travel height
G1 X131.897 Y143.044 F3000 ; Move to next point
G1 Z0.1 F3000 ; Lower to weld height
G4 P500 ; Weld for 0.5s
G1 Z1.5 F3000 ; Raise to low travel height
G1 X132.517 Y143.635 F3000 ; Move to next point
G1 Z0.1 F3000 ; Lower to weld height
G4 P500 ; Weld for 0.5s
G1 Z1.5 F3000 ; Raise to low travel height
G1 X133.138 Y144.227 F3000 ; Move to next point
G1 Z0.1 F3000 ; Lower to weld height
G4 P500 ; Weld for 0.5s
G1 Z1.5 F3000 ; Raise to low travel height
G1 X133.759 Y144.818 F3000 ; Move to next point
G1 Z0.1 F3000 ; Lower to weld height
G4 P500 ; Weld for 0.5s
G1 Z1.5 F3000 ; Raise to low travel height
G1 X134.379 Y145.409 F3000 ; Move to next point
G1 Z0.1 F3000 ; Lower to weld height
G4 P500 ; Weld for 0.5s
G1 Z1.5 F3000 ; Raise to low travel height
G1 X135.000 Y146.000 F3000 ; Move to next point
G1 Z0.1 F3000 ; Lower to weld height
G4 P500 ; Weld for 0.5s
G1 Z1.5 F3000 ; Raise to low travel height
; Completed path: dxf_entity_3_0_8pts

; Starting path: dxf_entity_4_0_26pts (normal)
G1 X134.200 Y146.000 F3000 ; Move to start of path
G1 Z0.1 F3000 ; Lower to weld height
G4 P500 ; Weld for 0.5s
G1 Z1.5 F3000 ; Raise to low travel height
G1 X133.400 Y146.000 F3000 ; Move to next point
G1 Z0.1 F3000 ; Lower to weld height
G4 P500 ; Weld for 0.5s
G1 Z1.5 F3000 ; Raise to low travel height
G1 X132.600 Y146.000 F3000 ; Move to next point
G1 Z0.1 F3000 ; Lower to weld height
G4 P500 ; Weld for 0.5s
G1 Z1.5 F3000 ; Raise to low travel height
G1 X131.800 Y146.000 F3000 ; Move to next point
G1 Z0.1 F3000 ; Lower to weld height
G4 P500 ; Weld for 0.5s
G1 Z1.5 F3000 ; Raise to low travel height
G1 X131.000 Y146.000 F3000 ; Move to next point
G1 Z0.1 F3000 ; Lower to weld height
G4 P500 ; Weld for 0.5s
G1 Z1.5 F3000 ; Raise to low travel height
G1 X130.200 Y146.000 F3000 ; Move to next point
G1 Z0.1 F3000 ; Lower to weld height
G4 P500 ; Weld for 0.5s
G1 Z1.5 F3000 ; Raise to low travel height
G1 X129.400 Y146.000 F3000 ; Move to next point
G1 Z0.1 F3000 ; Lower to weld height
G4 P500 ; Weld for 0.5s
G1 Z1.5 F3000 ; Raise to low travel height
G1 X128.600 Y146.000 F3000 ; Move to next point
G1 Z0.1 F3000 ; Lower to weld height
G4 P500 ; Weld for 0.5s
G1 Z1.5 F3000 ; Raise to low travel height
G1 X127.800 Y146.000 F3000 ; Move to next point
G1 Z0.1 F3000 ; Lower to weld height
G4 P500 ; Weld for 0.5s
G1 Z1.5 F3000 ; Raise to low travel height
G1 X127.000 Y146.000 F3000 ; Move to next point
G1 Z0.1 F3000 ; Lower to weld height
G4 P500 ; Weld for 0.5s
G1 Z1.5 F3000 ; Raise to low travel height
G1 X126.200 Y146.000 F3000 ; Move to next point
G1 Z0.1 F3000 ; Lower to weld height
G4 P500 ; Weld for 0.5s
G1 Z1.5 F3000 ; Raise to low travel height
G1 X125.400 Y146.000 F3000 ; Move to next point
G1 Z0.1 F3000 ; Lower to weld height
G4 P500 ; Weld for 0.5s
G1 Z1.5 F3000 ; Raise to low travel height
G1 X124.600 Y146.000 F3000 ; Move to next point
G1 Z0.1 F3000 ; Lower to weld height
G4 P500 ; Weld for 0.5s
G1 Z1.5 F3000 ; Raise to low travel height
G1 X123.800 Y146.000 F3000 ; Move to next point
G1 Z0.1 F3000 ; Lower to weld height
G4 P500 ; Weld for 0.5s
G1 Z1.5 F3000 ; Raise to low travel height
G1 X123.000 Y146.000 F3000 ; Move to next point
G1 Z0.1 F3000 ; Lower to weld height
G4 P500 ; Weld for 0.5s
G1 Z1.5 F3000 ; Raise to low travel height
G1 X122.200 Y146.000 F3000 ; Move to next point
G1 Z0.1 F3000 ; Lower to weld height
G4 P500 ; Weld for 0.5s
G1 Z1.5 F3000 ; Raise to low travel height
G1 X121.400 Y146.000 F3000 ; Move to next point
G1 Z0.1 F3000 ; Lower to weld height
G4 P500 ; Weld for 0.5s
G1 Z1.5 F3000 ; Raise to low travel height
G1 X120.600 Y146.000 F3000 ; Move to next point
G1 Z0.1 F3000 ; Lower to weld height
G4 P500 ; Weld for 0.5s
G1 Z1.5 F3000 ; Raise to low travel height
G1 X119.800 Y146.000 F3000 ; Move to next point
G1 Z0.1 F3000 ; Lower to weld height
G4 P500 ; Weld for 0.5s
G1 Z1.5 F3000 ; Raise to low travel height
G1 X119.000 Y146.000 F3000 ; Move to next point
G1 Z0.1 F3000 ; Lower to weld height
G4 P500 ; Weld for 0.5s
G1 Z1.5 F3000 ; Raise to low travel height
G1 X118.200 Y146.000 F3000 ; Move to next point
G1 Z0.1 F3000 ; Lower to weld height
G4 P500 ; Weld for 0.5s
G1 Z1.5 F3000 ; Raise to low travel height
G1 X117.400 Y146.000 F3000 ; Move to next point
G1 Z0.1 F3000 ; Lower to weld height
G4 P500 ; Weld for 0.5s
G1 Z1.5 F3000 ; Raise to low travel height
G1 X116.600 Y146.000 F3000 ; Move to next point
G1 Z0.1 F3000 ; Lower to weld height
G4 P500 ; Weld for 0.5s
G1 Z1.5 F3000 ; Raise to low travel height
G1 X115.800 Y146.000 F3000 ; Move to next point
G1 Z0.1 F3000 ; Lower to weld height
G4 P500 ; Weld for 0.5s
G1 Z1.5 F3000 ; Raise to low travel height
G1 X115.000 Y146.000 F3000 ; Move to next point
G1 Z0.1 F3000 ; Lower to weld height
G4 P500 ; Weld for 0.5s
G1 Z1.5 F3000 ; Raise to low travel height
; Completed path: dxf_entity_4_0_26pts

; Starting path: dxf_entity_5_0_8pts (normal)
G1 X115.621 Y145.409 F3000 ; Move to start of path
G1 Z0.1 F3000 ; Lower to weld height
G4 P500 ; Weld for 0.5s
G1 Z1.5 F3000 ; Raise to low travel height
G1 X116.241 Y144.818 F3000 ; Move to next point
G1 Z0.1 F3000 ; Lower to weld height
G4 P500 ; Weld for 0.5s
G1 Z1.5 F3000 ; Raise to low travel height
G1 X116.862 Y144.227 F3000 ; Move to next point
G1 Z0.1 F3000 ; Lower to weld height
G4 P500 ; Weld for 0.5s
G1 Z1.5 F3000 ; Raise to low travel height
G1 X117.483 Y143.635 F3000 ; Move to next point
G1 Z0.1 F3000 ; Lower to weld height
G4 P500 ; Weld for 0.5s
G1 Z1.5 F3000 ; Raise to low travel height
G1 X118.103 Y143.044 F3000 ; Move to next point
G1 Z0.1 F3000 ; Lower to weld height
G4 P500 ; Weld for 0.5s
G1 Z1.5 F3000 ; Raise to low travel height
G1 X118.724 Y142.453 F3000 ; Move to next point
G1 Z0.1 F3000 ; Lower to weld height
G4 P500 ; Weld for 0.5s
G1 Z1.5 F3000 ; Raise to low travel height
G1 X119.345 Y141.862 F3000 ; Move to next point
G1 Z0.1 F3000 ; Lower to weld height
G4 P500 ; Weld for 0.5s
G1 Z1.5 F3000 ; Raise to low travel height
; Completed path: dxf_entity_5_0_8pts

; Starting path: dxf_entity_6_0_5pts (normal)
G1 X121.923 Y116.000 F3000 ; Move to start of path
G1 Z0.1 F3000 ; Lower to weld height
G4 P500 ; Weld for 0.5s
G1 Z1.5 F3000 ; Raise to low travel height
G1 X122.761 Y116.426 F3000 ; Move to next point
G1 Z0.1 F3000 ; Lower to weld height
G4 P500 ; Weld for 0.5s
G1 Z1.5 F3000 ; Raise to low travel height
G1 X123.426 Y117.089 F3000 ; Move to next point
G1 Z0.1 F3000 ; Lower to weld height
G4 P500 ; Weld for 0.5s
G1 Z1.5 F3000 ; Raise to low travel height
G1 X123.853 Y117.926 F3000 ; Move to next point
G1 Z0.1 F3000 ; Lower to weld height
G4 P500 ; Weld for 0.5s
G1 Z1.5 F3000 ; Raise to low travel height
G1 X124.000 Y118.854 F3000 ; Move to next point
G1 Z0.1 F3000 ; Lower to weld height
G4 P500 ; Weld for 0.5s
G1 Z1.5 F3000 ; Raise to low travel height
; Completed path: dxf_entity_6_0_5pts

; Starting path: dxf_entity_7_0_16pts (normal)
G1 X124.000 Y131.000 F3000 ; Move to start of path
G1 Z0.1 F3000 ; Lower to weld height
G4 P500 ; Weld for 0.5s
G1 Z1.5 F3000 ; Raise to low travel height
G1 X123.978 Y131.809 F3000 ; Move to next point
G1 Z0.1 F3000 ; Lower to weld height
G4 P500 ; Weld for 0.5s
G1 Z1.5 F3000 ; Raise to low travel height
G1 X123.913 Y132.616 F3000 ; Move to next point
G1 Z0.1 F3000 ; Lower to weld height
G4 P500 ; Weld for 0.5s
G1 Z1.5 F3000 ; Raise to low travel height
G1 X123.804 Y133.419 F3000 ; Move to next point
G1 Z0.1 F3000 ; Lower to weld height
G4 P500 ; Weld for 0.5s
G1 Z1.5 F3000 ; Raise to low travel height
G1 X123.652 Y134.214 F3000 ; Move to next point
G1 Z0.1 F3000 ; Lower to weld height
G4 P500 ; Weld for 0.5s
G1 Z1.5 F3000 ; Raise to low travel height
G1 X123.457 Y135.000 F3000 ; Move to next point
G1 Z0.1 F3000 ; Lower to weld height
G4 P500 ; Weld for 0.5s
G1 Z1.5 F3000 ; Raise to low travel height
G1 X123.220 Y135.774 F3000 ; Move to next point
G1 Z0.1 F3000 ; Lower to weld height
G4 P500 ; Weld for 0.5s
G1 Z1.5 F3000 ; Raise to low travel height
G1 X122.942 Y136.535 F3000 ; Move to next point
G1 Z0.1 F3000 ; Lower to weld height
G4 P500 ; Weld for 0.5s
G1 Z1.5 F3000 ; Raise to low travel height
G1 X122.623 Y137.279 F3000 ; Move to next point
G1 Z0.1 F3000 ; Lower to weld height
G4 P500 ; Weld for 0.5s
G1 Z1.5 F3000 ; Raise to low travel height
G1 X122.264 Y138.005 F3000 ; Move to next point
G1 Z0.1 F3000 ; Lower to weld height
G4 P500 ; Weld for 0.5s
G1 Z1.5 F3000 ; Raise to low travel height
G1 X121.867 Y138.710 F3000 ; Move to next point
G1 Z0.1 F3000 ; Lower to weld height
G4 P500 ; Weld for 0.5s
G1 Z1.5 F3000 ; Raise to low travel height
G1 X121.432 Y139.393 F3000 ; Move to next point
G1 Z0.1 F3000 ; Lower to weld height
G4 P500 ; Weld for 0.5s
G1 Z1.5 F3000 ; Raise to low travel height
G1 X120.961 Y140.052 F3000 ; Move to next point
G1 Z0.1 F3000 ; Lower to weld height
G4 P500 ; Weld for 0.5s
G1 Z1.5 F3000 ; Raise to low travel height
G1 X120.455 Y140.684 F3000 ; Move to next point
G1 Z0.1 F3000 ; Lower to weld height
G4 P500 ; Weld for 0.5s
G1 Z1.5 F3000 ; Raise to low travel height
G1 X119.916 Y141.288 F3000 ; Move to next point
G1 Z0.1 F3000 ; Lower to weld height
G4 P500 ; Weld for 0.5s
G1 Z1.5 F3000 ; Raise to low travel height
; Completed path: dxf_entity_7_0_16pts

; Starting path: dxf_entity_8_0_16pts (normal)
