; Generated by MicroWeldr - Streaming Subscriber
; Prusa Core One Plastic Welding G-code
; Output file: combined.gcode
;
; Process Overview:
; 1. Heat bed and calibrate
; 2. Heat nozzle and wait
; 3. Pause for plastic sheet insertion
; 4. Execute welding sequence
; 5. Cool down and finish
;
; Bed Temperature: 45°C
; Nozzle Temperature: 160°C
;

; Start heating bed to 45°C (heating during calibration)
M140 S45 ; Set bed temperature (start heating)

; Printer initialization
G90 ; Absolute positioning
M83 ; Relative extrusion
G28 ; Home all axes

; Heat bed and nozzle before bed leveling
M190 S45 ; Wait for bed temperature
M104 S160 ; Set nozzle temperature
M109 S160 ; Wait for nozzle temperature

; Bed leveling disabled

; Pause for user to insert plastic sheets
M117 Insert plastic sheets...
M0 ; Pause - Insert plastic sheets and press continue
M117 Starting welding sequence...

; Starting path: dxf_entity_0_0_249pts (normal)
G1 Z5.0 F3000 ; Move to high travel height
G1 X126.000 Y118.854 F3000 ; Move to start of welding
G1 Z0.1 F3000 ; Lower to weld height
G4 P500 ; Weld for 0.5s
G1 Z1.5 F3000 ; Raise to low travel height
G1 X126.147 Y117.926 F3000 ; Move to start of path
G1 Z0.1 F3000 ; Lower to weld height
G4 P500 ; Weld for 0.5s
G1 Z1.5 F3000 ; Raise to low travel height
G1 X126.574 Y117.089 F3000 ; Move to next point
G1 Z0.1 F3000 ; Lower to weld height
G4 P500 ; Weld for 0.5s
G1 Z1.5 F3000 ; Raise to low travel height
G1 X127.239 Y116.426 F3000 ; Move to next point
G1 Z0.1 F3000 ; Lower to weld height
G4 P500 ; Weld for 0.5s
G1 Z1.5 F3000 ; Raise to low travel height
G1 X128.077 Y116.000 F3000 ; Move to next point
G1 Z0.1 F3000 ; Lower to weld height
G4 P500 ; Weld for 0.5s
G1 Z1.5 F3000 ; Raise to low travel height
G1 X128.832 Y115.722 F3000 ; Move to next point
G1 Z0.1 F3000 ; Lower to weld height
G4 P500 ; Weld for 0.5s
G1 Z1.5 F3000 ; Raise to low travel height
G1 X129.562 Y115.384 F3000 ; Move to next point
G1 Z0.1 F3000 ; Lower to weld height
G4 P500 ; Weld for 0.5s
G1 Z1.5 F3000 ; Raise to low travel height
G1 X130.263 Y114.988 F3000 ; Move to next point
G1 Z0.1 F3000 ; Lower to weld height
G4 P500 ; Weld for 0.5s
G1 Z1.5 F3000 ; Raise to low travel height
G1 X130.930 Y114.537 F3000 ; Move to next point
G1 Z0.1 F3000 ; Lower to weld height
G4 P500 ; Weld for 0.5s
G1 Z1.5 F3000 ; Raise to low travel height
G1 X131.558 Y114.034 F3000 ; Move to next point
G1 Z0.1 F3000 ; Lower to weld height
G4 P500 ; Weld for 0.5s
G1 Z1.5 F3000 ; Raise to low travel height
G1 X132.144 Y113.482 F3000 ; Move to next point
G1 Z0.1 F3000 ; Lower to weld height
G4 P500 ; Weld for 0.5s
G1 Z1.5 F3000 ; Raise to low travel height
G1 X132.684 Y112.885 F3000 ; Move to next point
G1 Z0.1 F3000 ; Lower to weld height
G4 P500 ; Weld for 0.5s
G1 Z1.5 F3000 ; Raise to low travel height
G1 X133.174 Y112.246 F3000 ; Move to next point
G1 Z0.1 F3000 ; Lower to weld height
G4 P500 ; Weld for 0.5s
G1 Z1.5 F3000 ; Raise to low travel height
G1 X133.610 Y111.571 F3000 ; Move to next point
G1 Z0.1 F3000 ; Lower to weld height
G4 P500 ; Weld for 0.5s
G1 Z1.5 F3000 ; Raise to low travel height
G1 X133.991 Y110.862 F3000 ; Move to next point
G1 Z0.1 F3000 ; Lower to weld height
G4 P500 ; Weld for 0.5s
G1 Z1.5 F3000 ; Raise to low travel height
G1 X134.314 Y110.124 F3000 ; Move to next point
G1 Z0.1 F3000 ; Lower to weld height
G4 P500 ; Weld for 0.5s
G1 Z1.5 F3000 ; Raise to low travel height
G1 X134.577 Y109.364 F3000 ; Move to next point
G1 Z0.1 F3000 ; Lower to weld height
G4 P500 ; Weld for 0.5s
G1 Z1.5 F3000 ; Raise to low travel height
G1 X134.777 Y108.584 F3000 ; Move to next point
G1 Z0.1 F3000 ; Lower to weld height
G4 P500 ; Weld for 0.5s
G1 Z1.5 F3000 ; Raise to low travel height
G1 X134.914 Y107.791 F3000 ; Move to next point
G1 Z0.1 F3000 ; Lower to weld height
G4 P500 ; Weld for 0.5s
G1 Z1.5 F3000 ; Raise to low travel height
G1 X134.987 Y106.990 F3000 ; Move to next point
G1 Z0.1 F3000 ; Lower to weld height
G4 P500 ; Weld for 0.5s
G1 Z1.5 F3000 ; Raise to low travel height
G1 X134.995 Y106.185 F3000 ; Move to next point
G1 Z0.1 F3000 ; Lower to weld height
G4 P500 ; Weld for 0.5s
G1 Z1.5 F3000 ; Raise to low travel height
G1 X134.939 Y105.382 F3000 ; Move to next point
G1 Z0.1 F3000 ; Lower to weld height
G4 P500 ; Weld for 0.5s
G1 Z1.5 F3000 ; Raise to low travel height
G1 X134.818 Y104.586 F3000 ; Move to next point
G1 Z0.1 F3000 ; Lower to weld height
G4 P500 ; Weld for 0.5s
G1 Z1.5 F3000 ; Raise to low travel height
G1 X134.634 Y103.803 F3000 ; Move to next point
G1 Z0.1 F3000 ; Lower to weld height
G4 P500 ; Weld for 0.5s
G1 Z1.5 F3000 ; Raise to low travel height
G1 X134.387 Y103.037 F3000 ; Move to next point
G1 Z0.1 F3000 ; Lower to weld height
G4 P500 ; Weld for 0.5s
G1 Z1.5 F3000 ; Raise to low travel height
G1 X134.079 Y102.293 F3000 ; Move to next point
G1 Z0.1 F3000 ; Lower to weld height
G4 P500 ; Weld for 0.5s
G1 Z1.5 F3000 ; Raise to low travel height
G1 X133.712 Y101.577 F3000 ; Move to next point
G1 Z0.1 F3000 ; Lower to weld height
G4 P500 ; Weld for 0.5s
G1 Z1.5 F3000 ; Raise to low travel height
G1 X133.289 Y100.892 F3000 ; Move to next point
G1 Z0.1 F3000 ; Lower to weld height
G4 P500 ; Weld for 0.5s
G1 Z1.5 F3000 ; Raise to low travel height
G1 X132.813 Y100.243 F3000 ; Move to next point
G1 Z0.1 F3000 ; Lower to weld height
G4 P500 ; Weld for 0.5s
G1 Z1.5 F3000 ; Raise to low travel height
G1 X132.286 Y99.635 F3000 ; Move to next point
G1 Z0.1 F3000 ; Lower to weld height
G4 P500 ; Weld for 0.5s
G1 Z1.5 F3000 ; Raise to low travel height
G1 X131.711 Y99.072 F3000 ; Move to next point
G1 Z0.1 F3000 ; Lower to weld height
G4 P500 ; Weld for 0.5s
G1 Z1.5 F3000 ; Raise to low travel height
G1 X131.093 Y98.556 F3000 ; Move to next point
G1 Z0.1 F3000 ; Lower to weld height
G4 P500 ; Weld for 0.5s
G1 Z1.5 F3000 ; Raise to low travel height
G1 X130.436 Y98.092 F3000 ; Move to next point
G1 Z0.1 F3000 ; Lower to weld height
G4 P500 ; Weld for 0.5s
G1 Z1.5 F3000 ; Raise to low travel height
G1 X129.743 Y97.682 F3000 ; Move to next point
G1 Z0.1 F3000 ; Lower to weld height
G4 P500 ; Weld for 0.5s
G1 Z1.5 F3000 ; Raise to low travel height
G1 X129.020 Y97.329 F3000 ; Move to next point
G1 Z0.1 F3000 ; Lower to weld height
G4 P500 ; Weld for 0.5s
G1 Z1.5 F3000 ; Raise to low travel height
G1 X128.271 Y97.035 F3000 ; Move to next point
G1 Z0.1 F3000 ; Lower to weld height
G4 P500 ; Weld for 0.5s
G1 Z1.5 F3000 ; Raise to low travel height
G1 X127.500 Y96.803 F3000 ; Move to next point
G1 Z0.1 F3000 ; Lower to weld height
G4 P500 ; Weld for 0.5s
G1 Z1.5 F3000 ; Raise to low travel height
G1 X127.715 Y95.972 F3000 ; Move to next point
G1 Z0.1 F3000 ; Lower to weld height
G4 P500 ; Weld for 0.5s
G1 Z1.5 F3000 ; Raise to low travel height
G1 X127.929 Y95.141 F3000 ; Move to next point
G1 Z0.1 F3000 ; Lower to weld height
G4 P500 ; Weld for 0.5s
G1 Z1.5 F3000 ; Raise to low travel height
G1 X128.144 Y94.310 F3000 ; Move to next point
G1 Z0.1 F3000 ; Lower to weld height
G4 P500 ; Weld for 0.5s
G1 Z1.5 F3000 ; Raise to low travel height
G1 X128.358 Y93.479 F3000 ; Move to next point
G1 Z0.1 F3000 ; Lower to weld height
G4 P500 ; Weld for 0.5s
G1 Z1.5 F3000 ; Raise to low travel height
G1 X128.573 Y92.648 F3000 ; Move to next point
G1 Z0.1 F3000 ; Lower to weld height
G4 P500 ; Weld for 0.5s
G1 Z1.5 F3000 ; Raise to low travel height
G1 X128.787 Y91.817 F3000 ; Move to next point
G1 Z0.1 F3000 ; Lower to weld height
G4 P500 ; Weld for 0.5s
G1 Z1.5 F3000 ; Raise to low travel height
G1 X129.002 Y90.986 F3000 ; Move to next point
G1 Z0.1 F3000 ; Lower to weld height
G4 P500 ; Weld for 0.5s
G1 Z1.5 F3000 ; Raise to low travel height
G1 X129.216 Y90.155 F3000 ; Move to next point
G1 Z0.1 F3000 ; Lower to weld height
G4 P500 ; Weld for 0.5s
G1 Z1.5 F3000 ; Raise to low travel height
G1 X129.431 Y89.324 F3000 ; Move to next point
G1 Z0.1 F3000 ; Lower to weld height
G4 P500 ; Weld for 0.5s
G1 Z1.5 F3000 ; Raise to low travel height
G1 X129.646 Y88.493 F3000 ; Move to next point
G1 Z0.1 F3000 ; Lower to weld height
G4 P500 ; Weld for 0.5s
G1 Z1.5 F3000 ; Raise to low travel height
G1 X129.860 Y87.662 F3000 ; Move to next point
G1 Z0.1 F3000 ; Lower to weld height
G4 P500 ; Weld for 0.5s
G1 Z1.5 F3000 ; Raise to low travel height
G1 X130.075 Y86.831 F3000 ; Move to next point
G1 Z0.1 F3000 ; Lower to weld height
G4 P500 ; Weld for 0.5s
G1 Z1.5 F3000 ; Raise to low travel height
G1 X130.289 Y86.000 F3000 ; Move to next point
G1 Z0.1 F3000 ; Lower to weld height
G4 P500 ; Weld for 0.5s
G1 Z1.5 F3000 ; Raise to low travel height
G1 X131.231 Y86.000 F3000 ; Move to next point
G1 Z0.1 F3000 ; Lower to weld height
G4 P500 ; Weld for 0.5s
G1 Z1.5 F3000 ; Raise to low travel height
G1 X132.174 Y86.000 F3000 ; Move to next point
G1 Z0.1 F3000 ; Lower to weld height
G4 P500 ; Weld for 0.5s
G1 Z1.5 F3000 ; Raise to low travel height
G1 X133.116 Y86.000 F3000 ; Move to next point
G1 Z0.1 F3000 ; Lower to weld height
G4 P500 ; Weld for 0.5s
G1 Z1.5 F3000 ; Raise to low travel height
G1 X134.058 Y86.000 F3000 ; Move to next point
G1 Z0.1 F3000 ; Lower to weld height
G4 P500 ; Weld for 0.5s
G1 Z1.5 F3000 ; Raise to low travel height
G1 X135.000 Y86.000 F3000 ; Move to next point
G1 Z0.1 F3000 ; Lower to weld height
G4 P500 ; Weld for 0.5s
G1 Z1.5 F3000 ; Raise to low travel height
G1 X135.000 Y85.125 F3000 ; Move to next point
G1 Z0.1 F3000 ; Lower to weld height
G4 P500 ; Weld for 0.5s
G1 Z1.5 F3000 ; Raise to low travel height
G1 X135.000 Y84.250 F3000 ; Move to next point
G1 Z0.1 F3000 ; Lower to weld height
G4 P500 ; Weld for 0.5s
G1 Z1.5 F3000 ; Raise to low travel height
G1 X135.000 Y83.375 F3000 ; Move to next point
G1 Z0.1 F3000 ; Lower to weld height
G4 P500 ; Weld for 0.5s
G1 Z1.5 F3000 ; Raise to low travel height
G1 X135.000 Y82.500 F3000 ; Move to next point
G1 Z0.1 F3000 ; Lower to weld height
G4 P500 ; Weld for 0.5s
G1 Z1.5 F3000 ; Raise to low travel height
G1 X135.000 Y81.625 F3000 ; Move to next point
G1 Z0.1 F3000 ; Lower to weld height
G4 P500 ; Weld for 0.5s
G1 Z1.5 F3000 ; Raise to low travel height
G1 X135.000 Y80.750 F3000 ; Move to next point
G1 Z0.1 F3000 ; Lower to weld height
G4 P500 ; Weld for 0.5s
G1 Z1.5 F3000 ; Raise to low travel height
G1 X135.000 Y79.875 F3000 ; Move to next point
G1 Z0.1 F3000 ; Lower to weld height
G4 P500 ; Weld for 0.5s
G1 Z1.5 F3000 ; Raise to low travel height
G1 X135.000 Y79.000 F3000 ; Move to next point
G1 Z0.1 F3000 ; Lower to weld height
G4 P500 ; Weld for 0.5s
G1 Z1.5 F3000 ; Raise to low travel height
G1 X134.200 Y79.000 F3000 ; Move to next point
G1 Z0.1 F3000 ; Lower to weld height
G4 P500 ; Weld for 0.5s
G1 Z1.5 F3000 ; Raise to low travel height
G1 X133.400 Y79.000 F3000 ; Move to next point
G1 Z0.1 F3000 ; Lower to weld height
G4 P500 ; Weld for 0.5s
G1 Z1.5 F3000 ; Raise to low travel height
G1 X132.600 Y79.000 F3000 ; Move to next point
G1 Z0.1 F3000 ; Lower to weld height
G4 P500 ; Weld for 0.5s
G1 Z1.5 F3000 ; Raise to low travel height
G1 X131.800 Y79.000 F3000 ; Move to next point
G1 Z0.1 F3000 ; Lower to weld height
G4 P500 ; Weld for 0.5s
G1 Z1.5 F3000 ; Raise to low travel height
G1 X131.000 Y79.000 F3000 ; Move to next point
G1 Z0.1 F3000 ; Lower to weld height
G4 P500 ; Weld for 0.5s
G1 Z1.5 F3000 ; Raise to low travel height
G1 X130.200 Y79.000 F3000 ; Move to next point
G1 Z0.1 F3000 ; Lower to weld height
G4 P500 ; Weld for 0.5s
G1 Z1.5 F3000 ; Raise to low travel height
G1 X129.400 Y79.000 F3000 ; Move to next point
G1 Z0.1 F3000 ; Lower to weld height
G4 P500 ; Weld for 0.5s
G1 Z1.5 F3000 ; Raise to low travel height
G1 X128.600 Y79.000 F3000 ; Move to next point
G1 Z0.1 F3000 ; Lower to weld height
G4 P500 ; Weld for 0.5s
G1 Z1.5 F3000 ; Raise to low travel height
G1 X127.800 Y79.000 F3000 ; Move to next point
G1 Z0.1 F3000 ; Lower to weld height
G4 P500 ; Weld for 0.5s
G1 Z1.5 F3000 ; Raise to low travel height
G1 X127.000 Y79.000 F3000 ; Move to next point
G1 Z0.1 F3000 ; Lower to weld height
G4 P500 ; Weld for 0.5s
G1 Z1.5 F3000 ; Raise to low travel height
G1 X126.200 Y79.000 F3000 ; Move to next point
G1 Z0.1 F3000 ; Lower to weld height
G4 P500 ; Weld for 0.5s
G1 Z1.5 F3000 ; Raise to low travel height
G1 X125.400 Y79.000 F3000 ; Move to next point
G1 Z0.1 F3000 ; Lower to weld height
G4 P500 ; Weld for 0.5s
G1 Z1.5 F3000 ; Raise to low travel height
G1 X124.600 Y79.000 F3000 ; Move to next point
G1 Z0.1 F3000 ; Lower to weld height
G4 P500 ; Weld for 0.5s
G1 Z1.5 F3000 ; Raise to low travel height
G1 X123.800 Y79.000 F3000 ; Move to next point
G1 Z0.1 F3000 ; Lower to weld height
G4 P500 ; Weld for 0.5s
G1 Z1.5 F3000 ; Raise to low travel height
G1 X123.000 Y79.000 F3000 ; Move to next point
G1 Z0.1 F3000 ; Lower to weld height
G4 P500 ; Weld for 0.5s
G1 Z1.5 F3000 ; Raise to low travel height
G1 X122.200 Y79.000 F3000 ; Move to next point
G1 Z0.1 F3000 ; Lower to weld height
G4 P500 ; Weld for 0.5s
G1 Z1.5 F3000 ; Raise to low travel height
G1 X121.400 Y79.000 F3000 ; Move to next point
G1 Z0.1 F3000 ; Lower to weld height
G4 P500 ; Weld for 0.5s
G1 Z1.5 F3000 ; Raise to low travel height
G1 X120.600 Y79.000 F3000 ; Move to next point
G1 Z0.1 F3000 ; Lower to weld height
G4 P500 ; Weld for 0.5s
G1 Z1.5 F3000 ; Raise to low travel height
G1 X119.800 Y79.000 F3000 ; Move to next point
G1 Z0.1 F3000 ; Lower to weld height
G4 P500 ; Weld for 0.5s
G1 Z1.5 F3000 ; Raise to low travel height
G1 X119.000 Y79.000 F3000 ; Move to next point
G1 Z0.1 F3000 ; Lower to weld height
G4 P500 ; Weld for 0.5s
G1 Z1.5 F3000 ; Raise to low travel height
G1 X118.200 Y79.000 F3000 ; Move to next point
G1 Z0.1 F3000 ; Lower to weld height
G4 P500 ; Weld for 0.5s
G1 Z1.5 F3000 ; Raise to low travel height
G1 X117.400 Y79.000 F3000 ; Move to next point
G1 Z0.1 F3000 ; Lower to weld height
G4 P500 ; Weld for 0.5s
G1 Z1.5 F3000 ; Raise to low travel height
G1 X116.600 Y79.000 F3000 ; Move to next point
G1 Z0.1 F3000 ; Lower to weld height
G4 P500 ; Weld for 0.5s
G1 Z1.5 F3000 ; Raise to low travel height
G1 X115.800 Y79.000 F3000 ; Move to next point
G1 Z0.1 F3000 ; Lower to weld height
G4 P500 ; Weld for 0.5s
G1 Z1.5 F3000 ; Raise to low travel height
G1 X115.000 Y79.000 F3000 ; Move to next point
G1 Z0.1 F3000 ; Lower to weld height
G4 P500 ; Weld for 0.5s
G1 Z1.5 F3000 ; Raise to low travel height
G1 X115.000 Y79.875 F3000 ; Move to next point
G1 Z0.1 F3000 ; Lower to weld height
G4 P500 ; Weld for 0.5s
G1 Z1.5 F3000 ; Raise to low travel height
G1 X115.000 Y80.750 F3000 ; Move to next point
G1 Z0.1 F3000 ; Lower to weld height
G4 P500 ; Weld for 0.5s
G1 Z1.5 F3000 ; Raise to low travel height
G1 X115.000 Y81.625 F3000 ; Move to next point
G1 Z0.1 F3000 ; Lower to weld height
G4 P500 ; Weld for 0.5s
G1 Z1.5 F3000 ; Raise to low travel height
G1 X115.000 Y82.500 F3000 ; Move to next point
G1 Z0.1 F3000 ; Lower to weld height
G4 P500 ; Weld for 0.5s
G1 Z1.5 F3000 ; Raise to low travel height
G1 X115.000 Y83.375 F3000 ; Move to next point
G1 Z0.1 F3000 ; Lower to weld height
G4 P500 ; Weld for 0.5s
G1 Z1.5 F3000 ; Raise to low travel height
G1 X115.000 Y84.250 F3000 ; Move to next point
G1 Z0.1 F3000 ; Lower to weld height
G4 P500 ; Weld for 0.5s
G1 Z1.5 F3000 ; Raise to low travel height
G1 X115.000 Y85.125 F3000 ; Move to next point
G1 Z0.1 F3000 ; Lower to weld height
G4 P500 ; Weld for 0.5s
G1 Z1.5 F3000 ; Raise to low travel height
G1 X115.000 Y86.000 F3000 ; Move to next point
G1 Z0.1 F3000 ; Lower to weld height
G4 P500 ; Weld for 0.5s
G1 Z1.5 F3000 ; Raise to low travel height
G1 X115.942 Y86.000 F3000 ; Move to next point
G1 Z0.1 F3000 ; Lower to weld height
G4 P500 ; Weld for 0.5s
G1 Z1.5 F3000 ; Raise to low travel height
G1 X116.884 Y86.000 F3000 ; Move to next point
G1 Z0.1 F3000 ; Lower to weld height
G4 P500 ; Weld for 0.5s
G1 Z1.5 F3000 ; Raise to low travel height
G1 X117.826 Y86.000 F3000 ; Move to next point
G1 Z0.1 F3000 ; Lower to weld height
G4 P500 ; Weld for 0.5s
G1 Z1.5 F3000 ; Raise to low travel height
